/* XPM */
static char *a57064ce70924442d13cca872c5e891a81NpYS2oN0DRaZVL[] = {
/* columns rows colors chars-per-pixel */
"24 24 193 2 ",
"   c black",
".  c #010000",
"X  c #000100",
"o  c #010100",
"O  c #010101",
"+  c #030000",
"@  c #010200",
"#  c #000300",
"$  c #000201",
"%  c #000002",
"&  c #010002",
"*  c #000102",
"=  c #010103",
"-  c #030002",
";  c #020202",
":  c #040001",
">  c #040203",
",  c #000004",
"<  c #010004",
"1  c #070707",
"2  c #0A080B",
"3  c gray5",
"4  c #0E0C0D",
"5  c #0E0E0C",
"6  c #171111",
"7  c #171312",
"8  c #171314",
"9  c #171614",
"0  c #1E1614",
"q  c #1F1516",
"w  c #1C1819",
"e  c #201C1B",
"r  c #2C1E1E",
"t  c #332525",
"y  c #342626",
"u  c #31262A",
"i  c #34282A",
"p  c #372B2D",
"a  c #3D3230",
"s  c #5B2D2F",
"d  c #592F33",
"f  c #4A3031",
"g  c #4C3736",
"h  c #4C3639",
"j  c #612E33",
"k  c #7F2E34",
"l  c #6B3336",
"z  c #6F3D3E",
"x  c #7C3437",
"c  c #6A3D40",
"v  c #7A3C41",
"b  c #7C4548",
"n  c #7D494B",
"m  c #962F33",
"M  c #873D3C",
"N  c #943134",
"B  c #9D3639",
"V  c #98343E",
"C  c #9A3A3B",
"Z  c #BD2228",
"A  c #BF252D",
"S  c #B42D31",
"D  c #BC2D31",
"F  c #A1373B",
"G  c #A7383E",
"H  c #B43137",
"J  c #BB343A",
"K  c #E40000",
"L  c #E50000",
"P  c #E70000",
"I  c #E60100",
"U  c #E70101",
"Y  c #E70006",
"T  c #E80000",
"R  c #E90100",
"E  c #E90101",
"W  c #EA0000",
"Q  c #EB0100",
"!  c #EA0001",
"~  c #EB0001",
"^  c #E80002",
"/  c #EB0102",
"(  c #EA0003",
")  c #EC0002",
"_  c #ED0003",
"`  c #E90004",
"'  c #EB0004",
"]  c #EB0005",
"[  c #E90006",
"{  c #E80107",
"}  c #EC0005",
"|  c #ED0006",
" . c #EE0107",
".. c #E7040D",
"X. c #EB0009",
"o. c #E90208",
"O. c #EC0108",
"+. c #EC050B",
"@. c #EF040B",
"#. c #EC020F",
"$. c #EC050D",
"%. c #F0050A",
"&. c #EE0210",
"*. c #EC0610",
"=. c #EE0711",
"-. c #ED0713",
";. c #E70E16",
":. c #EF0913",
">. c #EE0B12",
",. c #EF0915",
"<. c #EC0A15",
"1. c #E80C16",
"2. c #ED0C14",
"3. c #EF0C15",
"4. c #E70E19",
"5. c #F00815",
"6. c #F10A14",
"7. c #E3111A",
"8. c #E7161C",
"9. c #ED1019",
"0. c #EC101A",
"q. c #EE131B",
"w. c #EF131F",
"e. c #ED141D",
"r. c #EE151D",
"t. c #ED141F",
"y. c #EB181F",
"u. c #F0101B",
"i. c #C01F25",
"p. c #D31821",
"a. c #D01C28",
"s. c #EA1624",
"d. c #E61822",
"f. c #E81B20",
"g. c #EA1B23",
"h. c #ED1A20",
"j. c #ED1A21",
"k. c #EC1B21",
"l. c #EF1923",
"z. c #EC1A23",
"x. c #ED1A23",
"c. c #EE1B22",
"v. c #EB1C22",
"b. c #ED1C21",
"n. c #ED1C22",
"m. c #EC1D23",
"M. c #EE1D23",
"N. c #EA1A27",
"B. c #ED1925",
"V. c #ED1B24",
"C. c #EC1A25",
"Z. c #EE1B24",
"A. c #ED1B26",
"S. c #EC1A27",
"D. c #EE1A26",
"F. c #EF1B27",
"G. c #EB1C24",
"H. c #E91D26",
"J. c #EB1C26",
"K. c #EC1D25",
"L. c #EE1C25",
"P. c #EF1C25",
"I. c #EF1D26",
"U. c #EE1C27",
"Y. c #ED1E26",
"T. c #EB1B28",
"R. c #ED1B28",
"E. c #EB1F2A",
"W. c #EF1D28",
"Q. c #EE1C29",
"!. c #EC1E28",
"~. c #ED1E28",
"^. c #ED1D2A",
"/. c #ED1F2C",
"(. c #F01A22",
"). c #F01A24",
"_. c #F01A26",
"`. c #D92025",
"'. c #D3262C",
"]. c #D4252C",
"[. c #D42D35",
"{. c #DE2A33",
"}. c #D82D36",
"|. c #CA3436",
" X c #C13238",
".X c #C9323B",
"XX c #E12933",
"oX c #9C3B42",
"OX c #A63C40",
"+X c #824042",
"@X c #8D494A",
"#X c #A04449",
"$X c #AB4048",
/* pixels */
"+ + + + + + + + + + + + + + + + + + + + + + + + ",
"+ + + + + + + 3 s B Z '.].i.G l e + + + + + , + ",
"+ + + + + + z `.E X.,.<.2.6.O.E d.M 3 + + + + + ",
"+ + + + w S I &.V.V.c.c.V.n.L.~.2.E p.p + + + + ",
"+ + + 8 a.E n.L.V.g.V.V.V.V.n.c.L.L.} ` a + + + ",
"+ + +  XE /.c._.V.V.V.V.V.n.V.V.V.V.!._ 7.6 + + ",
"+ + b E V.n.v.n.V.c.V.V.V.V.V.V.c.T.n.!.I $X+ + ",
"+ 3 s.-.L.V.V.V.c.c.c.V.c.V.n.V.V.R.c.V.e.` i + ",
"+ c I L.V.V.c.c.V.V.V.V.V.V.V.V.V.c.V.c.~.I oX+ ",
"+ OX} L.c.V.V.V.V.V.V.V.V.V.V.V.V.G.V.c.G.+.[.> ",
"+ |.$.V.n.G.V.V.V.V.V.V.V.V.V.V.V.L.c.n.V.9.g.0 ",
"2 {.,.g.V.V.V.c.V.V.V.V.V.V.V.V.c.V.V.n.V.e.;.y ",
"1 XX-.L.V.V.c.G.V.V.V.V.V.V.V.V.V.V.V.n.V.w.0.t ",
"+ A +.c.V.G.L.c.V.V.V.V.V.V.V.V.V.V.V.V.V.9.G.6 ",
"+ V E L.V.V.c.V.V.V.V.V.V.V.V.V.V.V.c.V.G.} .X+ ",
"+ h I c.N.n.V.V.V.V.V.V.V.V.V.V.V.V.V.V.~.I +X+ ",
"+ + [.E ~.c.V.V.V.G.V.V.V.V.G.V.c.G.c.n.>.4.9 + ",
"+ + g I w.G.V.V.V.G.V.V.V.V.G.V.G.c.V.V.E n + + ",
"+ , + @XE y.L.V.V.c.V.c.g.V._.V.V.n.~.E J + + + ",
"+ + + + #XE >.L.V.V.V.V.V.G.g.V.~.e.E D 3 + + + ",
"+ + + + + v ..E 9.L.V.g.c.V.L.e.` Y C + + + + + ",
"+ + + + , + u F 8.X.` #.-.+.` ;.H f + + + + + + ",
"+ + + + + + + + 0 d x N m k j r + + + + + + + + ",
"+ + + + + + + + + + + + + + + + + + + + + + + + "
};
